X: 2123
T:Bulgarian () 7
O:Bulgaria 
M:9/16
N:the turn symbol represents a trill
K:D
"G"d2 (~g2f) "C"g2e2 | "G"d2 (e2f) g2a2 |\
"G"d2 (~g2f) "C"g2e2 | "D7"d2 (~e2d) "G"d2d2::
"D"a2 (~d'2c') "G"d'2b2|"D"a2 ~b2c' d'2e'2|\
a2 (~d'2c') "G"d'2b2|"A7"a2 (~b2a) "D"a2a2 ::
"Em"e2 (~b2a) "Am"~a2(gf)|"D"d2 (e2f) "G"g2a2 |\
z2(~b2a) "Am"~a2(gf)|"Em"d2 (e2e) e2e2 ::
"Am"(ab) (~c'2a) (c'g)~b2|\
"G"(ba) (abg) "Am"(bg)~a2|\
(ab) (~c'2g) (c'd')b2|\
